X:1
T:Maid of GlenConnel
C:Traditional
M:3/4
L:1/4
Q:1/4=138
K:G
G/2A/2|B3/2A/2G|GBA|AFA|AFG/2A/2|B3/2A/2G|GBd|dBB|B2G/2A/2|B3/2A/2G|GBA|AFA|AFA|GBd|A3/2G/2A|B/2A/2GG|G2||
